X: 1
T: The Foxhunter's Jig  [G]
O: Ireland, England
B: Peter Barnes "English Country Dance Tunes" v.2
R: slipjig
Z: 2012 John Chambers <jc:trillian.mit.edu>
M: 9/8
L: 1/8
K: G
d/c/ \
|:\
"G"B2{c}B BGB "Am"c2A | "G"B2{c}B BGB "D"A2G |\
"G"B2{c}B BGB "Am"c2{B}A | "G"d2G GAB "D(G)"A2G :|
|:\
"Am"A2e edc "Bm"Bcd | "Am(C)"e2A ABc "D"BAG |\
"G"G2g gfe "(D7)"d[eB][fd] | "G"g2G GAB "D(G)"A2G :|

%%sep 1 1 500
%%sep 1 1 500
